X:1
T:Title
%%score { 1 | 2 }
L:1/8
M:4/4
K:Bb
V:1 treble nm="Grand Piano"
V:2 bass 
V:1
 z4 z2[Q:1/4=100] [B,D]>[CE] | [DF]2 [DF]>[DF] [EG]2 [DF]>[_D=E] | [DF]2 [B,D]4 [DF]>[DF] | %3
 [FB]2 [FB]>[FB] c2 B>A | [DB]6 [DF]>[DF] | G2 G>G [GB]2 [FA]>[EG] | [DF]2 [DB]4 [DB]>[DB] | %7
 B2 A>B [Gd]2 [=Ec]>[EB] |[M:3/4] [Fc]6 |[M:1/4] [FB]>c |[M:4/4] d2 d>d e2 d>c | %11
 [Fd]2 [DB]4 [DB]>[DB] | [DB]2 [EA]>[FB] [=Ed]2 [Ec]>[EB] | [Fc]6 [FB]>c | d2 d>c [DB]2 [EA]>[FB] | %15
 c2 G4 G>G | F F2 F A2 G>F |[M:3/4] [DB]6 |] %18
V:2
 z4 z2 [B,,F,]>[B,,F,] | [B,,B,]2 [B,,B,]>[B,,B,] [B,,B,]2 [B,,B,]>[B,,B,] | %2
 [B,,B,]2 [B,,F,]4 [B,,B,]>[B,,B,] | [D,B,]2 [D,B,]>[D,B,] [F,A,E]2 [F,A,D]>[F,CE] | %4
 [B,,B,]6 [B,,B,]>[B,,B,] | [E,B,E]2 [E,B,E]>[E,B,E] [E,E]2 [E,E]>[E,B,] | %6
 [B,,B,]2 [B,,F,]4 [B,,F,]>[B,,F,] | [G,D]2 [F,CE]>[F,B,D] [=E,B,]2 [C,G,]>[C,B,] | %8
[M:3/4] [F,A,]6 |[M:1/4] [D,B,]>[K:treble][F,A,F] | %10
[M:4/4] [B,F]2 [B,F]>[B,F] [B,G]2[K:bass] [F,B,F]>[F,A,F] | [B,,B,]2 [B,,F,]4 [B,,F,]>[B,,F,] | %12
 [B,,F,]2 [C,F,]>[D,B,] [C,B,]2 [C,G,]>[C,B,] | [F,A,]6 [D,B,]>[K:treble][F,A,F] | %14
 [B,F]2[K:bass] [F,B,F]>[F,A,E] [B,,B,]2 [C,F,]>[D,B,] | [E,G,E]2 [E,B,E]4 [E,B,E]>[E,B,E] | %16
 [F,B,D] [F,B,D]2 [F,B,D] [F,CE]2 [F,B,E]>[F,A,E] |[M:3/4] [B,,B,]6 |] %18

